img/logo/phone.svg

<svg width="40" height="40" viewBox="0 0 40 40" fill="none" xmlns="http://www.w3.org/2000/svg">
<rect x="0.5" y="0.5" width="39" height="39" rx="19.5" stroke="#EEEEEE"/>
<path fill-rule="evenodd" clip-rule="evenodd" d="M15.3093 12.054C15.0121 12.1934 14.7295 12.4214 14.2128 12.9386C13.3299 13.8222 12.4463 14.9715 12.1096 15.6739C11.9804 15.9436 11.9725 16.0548 12.049 16.5265C12.2992 18.0693 13.1719 19.932 14.4496 21.6504C15.4826 23.0397 16.9579 24.515 18.3471 25.548C19.5393 26.4343 20.8501 27.1542 22.0152 27.5625C22.7309 27.8132 23.5504 27.9997 23.9385 28C24.6574 28.0006 27.4919 25.6606 27.9326 24.7026C28.0345 24.4812 28.0208 24.246 27.8905 23.9797C27.7664 23.7261 27.5147 23.5101 26.7366 22.9894C25.865 22.406 25.2774 22.0538 24.6709 21.7513C23.434 21.1344 23.199 21.1804 22.321 22.211C21.8289 22.7887 21.8808 22.7547 21.6287 22.6635C21.5136 22.6219 21.2243 22.4931 20.9858 22.3775C19.5945 21.7026 18.4738 20.6208 17.7235 19.2285C17.5842 18.9698 17.2671 18.2274 17.2671 18.1597C17.2671 18.1442 17.4734 17.9527 17.7257 17.7342C18.495 17.0679 18.6477 16.8625 18.6479 16.4936C18.648 16.0391 18.1711 15.0572 17.2739 13.6649C16.8066 12.9398 16.4722 12.4702 16.312 12.3141C16.0282 12.0375 15.5879 11.9233 15.3093 12.054Z" fill="black"/>
</svg>

<svg xmlns="http://www.w3.org/2000/svg" width="40" height="40" fill="none" viewBox="0 0 40 40"><rect width="39" height="39" x=".5" y=".5" stroke="#eee" rx="19.5"/><path fill="#000" fill-rule="evenodd" d="M15.31 12.054c-.298.14-.58.367-1.097.885-.883.883-1.767 2.033-2.103 2.735-.13.27-.137.38-.061.852.25 1.543 1.123 3.406 2.4 5.124a20.2 20.2 0 0 0 3.898 3.898c1.192.886 2.503 1.606 3.668 2.015.716.25 1.535.437 1.924.437.718 0 3.553-2.34 3.994-3.297.102-.222.088-.457-.043-.723-.124-.254-.375-.47-1.153-.99-.872-.584-1.46-.936-2.066-1.239-1.237-.617-1.472-.57-2.35.46-.492.578-.44.544-.692.453a9 9 0 0 1-.643-.287 7.3 7.3 0 0 1-3.262-3.148c-.14-.26-.457-1.002-.457-1.07 0-.015.206-.206.459-.425.769-.666.922-.872.922-1.24 0-.455-.477-1.437-1.374-2.83-.467-.724-.802-1.194-.962-1.35-.284-.277-.724-.39-1.003-.26" clip-rule="evenodd"/></svg>
